dist/img/about/bg.svg

<svg width="1728" height="874" fill="none" xmlns="http://www.w3.org/2000/svg"><path fill="#FEFEFE" d="M0 0h1728v874H0z"/><path d="M1728 199.461V789.83l-394-24.462-405.784 69.716L666 789.83 486 873 0 736.014v-389.88l58 108.135 152.369-309.112L514 387.434 872 93l168 164 90-111.843L1225.95 0l271.78 269.742L1728 199.461z" fill="#F4F4F4" fill-opacity=".5"/><path d="M1130 145.157L1040 257 872 93 514 387.435 210.369 145.157 58 454.27 0 346.134v390.881L486 874l180-83.17 262.216 45.254L1334 766.368l394 24.462V199.461l-230.27 70.281L1225.95 0 1130 145.157zm367.45 125.716L1727 200.811v588.955l-392.94-24.396-.11-.007-405.732 69.706-262.355-45.277-.283.13-179.664 83.015L1 736.257V350.112l57.037 106.343 152.68-309.742L514.01 388.721l357.933-294.38 168.147 164.143 90.69-112.7.03-.036.02-.039 95.28-144.14 271.34 269.304z" fill="#EAEAEA"/><path d="M0 323.54V725l394 45.434L816 703l242 42.189h670V449.682l-58 92.999-152.37-265.843L1214 485.202 918.995 244.724 722 383.984 598 276.838 502.054 152 230.267 383.984 0 323.54z" fill="#F4F4F4"/><path d="M598 276.838l124 107.146 196.995-139.26L1214 485.201l303.63-208.363L1670 542.681l58-92.998v355.506h-670L816 763l-422 67.434L0 785V323.54l230.267 60.444L502.054 152 598 276.838zM230.519 385.084L1 324.837v459.271l392.977 45.317 422.03-67.439.165.029 241.918 42.174H1727V453.175l-57.04 91.454-152.66-266.353-303.35 208.173-294.999-240.47-197.013 139.273-124.592-107.657-.076-.067-.063-.081-95.305-124.004-271.383 231.641z" fill="#EAEAEA"/><path d="M1497.51 578.169l.15.05.15-.017 229.52-24.813V825.86l-393.32-8.648-.02-.001-.03.002-405.744 24.689-262.175-16.025-.075-.005-.073.012-179.916 29.443-485.31-48.45V605.836l56.966 37.617.383.253.373-.268 152.107-109.296 303.322 85.724.199.057.195-.067 294.808-98.971 196.79 57.295.21.06.2-.072 124-44.127.05-.017.04-.023 95.69-51.275 271.51 95.443z" fill="#EAEAEA" stroke="#EAEAEA" stroke-width="1.333"/></svg>

<svg width="1728" height="874" viewBox="0 0 1728 874" fill="none" xmlns="http://www.w3.org/2000/svg">
<rect width="1728" height="874" fill="#FEFEFE"/>
<path d="M1728 199.461V789.83L1334 765.368L928.216 835.084L666 789.83L486 873L0 736.014V346.134L58 454.269L210.369 145.157L514 387.434L872 93L1040 257L1130 145.157L1225.95 0L1497.73 269.742L1728 199.461Z" fill="#F4F4F4" fill-opacity="0.5"/>
<path d="M1130 145.157L1040 257L872 93L514 387.435L210.369 145.157L58 454.27L0 346.134V737.015L486 874L666 790.83L928.216 836.084L1334 766.368L1728 790.83V199.461L1497.73 269.742L1225.95 0L1130 145.157ZM1497.45 270.873L1727 200.811V789.766L1334.06 765.37L1333.95 765.363L928.218 835.069L665.863 789.792L665.58 789.922L485.916 872.937L1 736.257V350.112L58.0371 456.455L210.717 146.713L514.01 388.721L871.943 94.3408L1040.09 258.484L1130.78 145.784L1130.81 145.748L1130.83 145.709L1226.11 1.56934L1497.45 270.873Z" fill="#EAEAEA"/>
<path d="M0 323.54V725L394 770.434L816 703L1058 745.189H1728V449.682L1670 542.681L1517.63 276.838L1214 485.202L918.995 244.724L722 383.984L598 276.838L502.054 152L230.267 383.984L0 323.54Z" fill="#F4F4F4"/>
<path d="M598 276.838L722 383.984L918.995 244.724L1214 485.201L1517.63 276.838L1670 542.681L1728 449.683V805.189H1058L816 763L394 830.434L0 785V323.54L230.267 383.984L502.054 152L598 276.838ZM230.519 385.084L1 324.837V784.108L393.977 829.425L816.007 761.986L816.172 762.015L1058.09 804.189H1727V453.175L1669.96 544.629L1517.3 278.276L1213.95 486.449L918.951 245.979L721.938 385.252L597.346 277.595L597.27 277.528L597.207 277.447L501.902 153.443L230.519 385.084Z" fill="#EAEAEA"/>
<path d="M1497.51 578.169L1497.66 578.219L1497.81 578.202L1727.33 553.389V825.86L1334.01 817.212L1333.99 817.211L1333.96 817.213L928.216 841.902L666.041 825.877L665.966 825.872L665.893 825.884L485.977 855.327L0.666992 806.877V605.836L57.6328 643.453L58.0156 643.706L58.3887 643.438L210.496 534.142L513.818 619.866L514.017 619.923L514.212 619.856L809.02 520.885L1005.81 578.18L1006.02 578.24L1006.22 578.168L1130.22 534.041L1130.27 534.024L1130.31 534.001L1226 482.726L1497.51 578.169Z" fill="#EAEAEA" stroke="#EAEAEA" stroke-width="1.33341"/>
</svg>
